Lila_HD/devices/scalable/computer-symbolic.svg

<?xml version="1.0" encoding="UTF-8"?>
<!-- Created with Inkscape (http://www.inkscape.org/) -->
<svg version="1.1" viewBox="0 0 16 16" xmlns="http://www.w3.org/2000/svg" xmlns:cc="http://creativecommons.org/ns#" xmlns:dc="http://purl.org/dc/elements/1.1/" xmlns:rdf="http://www.w3.org/1999/02/22-rdf-syntax-ns#">
<metadata>
<rdf:RDF>
<cc:Work rdf:about="">
<dc:format>image/svg+xml</dc:format>
<dc:type rdf:resource="http://purl.org/dc/dcmitype/StillImage"/>
<dc:title/>
</cc:Work>
</rdf:RDF>
</metadata>
<g transform="translate(9379.3 -4843.2)">
<path transform="translate(-9379.3 4843.2)" d="m0 1v14h4v-14h-4zm5 1v9h11v-9h-11zm2 2h7v5h-7v-5zm-6 8h2v1h-2v-1zm8 0v1h-2v2h7v-2h-2v-1h-3z" color="#000000" fill="#999" fill-opacity=".91237"/>
<path d="m-9371.3 4848.2h5v2.9999h-5z" color="#000000" fill="#404957" fill-opacity=".23084"/>
</g>
</svg>

<?xml version="1.0" encoding="UTF-8" standalone="no"?>
<!-- Created with Inkscape (http://www.inkscape.org/) -->

<svg
   xmlns:dc="http://purl.org/dc/elements/1.1/"
   xmlns:cc="http://creativecommons.org/ns#"
   xmlns:rdf="http://www.w3.org/1999/02/22-rdf-syntax-ns#"
   xmlns:svg="http://www.w3.org/2000/svg"
   xmlns="http://www.w3.org/2000/svg"
   xmlns:sodipodi="http://sodipodi.sourceforge.net/DTD/sodipodi-0.dtd"
   xmlns:inkscape="http://www.inkscape.org/namespaces/inkscape"
   width="15.999998"
   height="15.999998"
   id="svg13094"
   version="1.1"
   inkscape:version="0.48.3.1 r9886"
   sodipodi:docname="computer.svg">
  <sodipodi:namedview
     id="base"
     pagecolor="#ffffff"
     bordercolor="#666666"
     borderopacity="1.0"
     inkscape:pageopacity="0.0"
     inkscape:pageshadow="2"
     inkscape:zoom="45.254834"
     inkscape:cx="4.4849321"
     inkscape:cy="8.1037545"
     inkscape:document-units="px"
     inkscape:current-layer="layer1"
     showgrid="true"
     inkscape:snap-bbox="true"
     inkscape:bbox-paths="true"
     inkscape:bbox-nodes="true"
     inkscape:snap-bbox-edge-midpoints="true"
     inkscape:snap-bbox-midpoints="true"
     inkscape:object-paths="true"
     inkscape:snap-intersection-paths="true"
     inkscape:object-nodes="true"
     inkscape:snap-smooth-nodes="true"
     inkscape:snap-midpoints="true"
     inkscape:snap-object-midpoints="true"
     inkscape:snap-center="true"
     showguides="false"
     inkscape:guide-bbox="true"
     inkscape:window-width="1920"
     inkscape:window-height="1033"
     inkscape:window-x="-2"
     inkscape:window-y="25"
     inkscape:window-maximized="1"
     inkscape:snap-global="true"
     fit-margin-top="0"
     fit-margin-left="0"
     fit-margin-right="0"
     fit-margin-bottom="0"
     showborder="true"
     inkscape:showpageshadow="false">
    <sodipodi:guide
       orientation="0,1"
       position="-25.000005,930.61286"
       id="guide4700" />
    <sodipodi:guide
       orientation="0,1"
       position="576.71887,328.89388"
       id="guide4702" />
    <sodipodi:guide
       orientation="1,0"
       position="576.71899,489.70395"
       id="guide4706" />
    <sodipodi:guide
       orientation="1,0"
       position="54.999996,930.61286"
       id="guide4708" />
    <sodipodi:guide
       orientation="0,1"
       position="-25.000005,850.61296"
       id="guide4710" />
    <sodipodi:guide
       orientation="0,1"
       position="536.71887,408.8938"
       id="guide4712" />
    <sodipodi:guide
       orientation="1,0"
       position="496.71887,408.8938"
       id="guide4714" />
    <inkscape:grid
       type="xygrid"
       id="grid3216"
       empspacing="5"
       visible="true"
       enabled="true"
       snapvisiblegridlinesonly="true"
       originx="-24.999951px"
       originy="-219.00005px" />
    <sodipodi:guide
       orientation="-0.70710664,0.70710692"
       position="4.0000502,-246.00005"
       id="guide3847" />
    <sodipodi:guide
       orientation="0.70710594,0.70710762"
       position="5.0000502,-245.00005"
       id="guide3849" />
    <sodipodi:guide
       orientation="-0.70710681,0.70710676"
       position="7.0000502,-212.00005"
       id="guide3851" />
  </sodipodi:namedview>
  <defs
     id="defs13096" />
  <metadata
     id="metadata13099">
    <rdf:RDF>
      <cc:Work
         rdf:about="">
        <dc:format>image/svg+xml</dc:format>
        <dc:type
           rdf:resource="http://purl.org/dc/dcmitype/StillImage" />
        <dc:title />
      </cc:Work>
    </rdf:RDF>
  </metadata>
  <g
     transform="translate(9379.308,-4843.1988)"
     id="layer1"
     inkscape:groupmode="layer"
     inkscape:label="Camada 1">
    <path
       style="color:#000000;fill:#999999;fill-opacity:0.91237116;fill-rule:nonzero;stroke:none;stroke-width:57.8928833;marker:none;visibility:visible;display:inline;overflow:visible;enable-background:accumulate"
       d="M 0 1 L 0 15 L 4 15 L 4 1 L 0 1 z M 5 2 L 5 11 L 16 11 L 16 2 L 5 2 z M 7 4 L 14 4 L 14 9 L 7 9 L 7 4 z M 1 12 L 3 12 L 3 13 L 1 13 L 1 12 z M 9 12 L 9 13 L 7 13 L 7 15 L 14 15 L 14 13 L 12 13 L 12 12 L 9 12 z "
       transform="translate(-9379.308,4843.1988)"
       id="rect2996" />
    <path
       style="color:#000000;fill:#404957;fill-opacity:0.230837;fill-rule:nonzero;stroke:none;stroke-width:57.8928833;marker:none;visibility:visible;display:inline;overflow:visible;enable-background:accumulate"
       d="m -9371.3076,4848.1987 5,0 0,2.9999 -5,0 z"
       id="rect2994" />
  </g>
</svg>
